src/22/panel/copy-paused.svg

<svg xmlns="http://www.w3.org/2000/svg" width="22" height="22" x="0" y="0" version="1.1" xml:space="preserve">
 <defs>
  <style id="current-color-scheme" type="text/css">
   .ColorScheme-Text { color:#dfdfdf; } .ColorScheme-Highlight { color:#5294e2; }
  </style>
 </defs>
 <g transform="translate(-1 -1.0007)">
  <path opacity=".3" style="fill:currentColor" class="ColorScheme-Text" d="m19.635 2.0254l-5.617 6.8164 1.982 1.1562 4-7.6464-0.365-0.3262zm-14.635 4.4746l-4 3.5 4.375-0.625 1.625 9.625 3.393-2.301 0.607 0.178v-2.856l-1.252 1.071-3.248-8.092-1.5-0.5zm7 2.5293l-3 0.9707 1 3 1-0.75v-0.25h0.334l2.666-2-2-0.9707zm3 1.5707l-1.637 1.4h3.637l-2-1.4z" transform="translate(1 1.0007)"/>
  <path fill-rule="evenodd" style="fill:currentColor" class="ColorScheme-Text" d="m13 14v6h3v-6h-3zm4 0v6h3v-6h-3z" clip-rule="evenodd"/>
 </g>
</svg>

<svg xmlns="http://www.w3.org/2000/svg" width="22" height="22"><defs><style id="current-color-scheme" type="text/css">.ColorScheme-Text{color:#dfdfdf}</style></defs><path opacity=".3" class="ColorScheme-Text" d="M19.635 2.025l-5.617 6.817L16 9.998l4-7.646-.365-.327zM5 6.5L1 10l4.375-.625L7 19l3.393-2.301.607.178v-2.856l-1.252 1.071L6.5 7 5 6.5zm7 2.53L9 10l1 3 1-.75V12h.334L14 10l-2-.97zm3 1.57L13.363 12H17l-2-1.4z" fill="currentColor"/><path fill-rule="evenodd" class="ColorScheme-Text" d="M12 13v6h3v-6h-3zm4 0v6h3v-6h-3z" clip-rule="evenodd" fill="currentColor"/></svg>
